%
(Generated by SketchUcam V1.4d-80c0152)
(File: Desenhos.skp)
(Bit diameter: 1.00 mm)
(Feed rate: 5000.00 mm/min)
(Plunge Feed rate: 2540.00 mm/min)
(Material Thickness: 3.00 mm)
(Material length: 300.00 mm X width: 300.00 mm)
(Overhead Gantry: false)
(Plunge Depth first)
(Optimization is ON)
(www.PhlatBoyz.com)
(Loaded profile Desenho)
G90 G21 G49 G17 F2540
M3 S15000
G00 Z5.000
 X89.561 Y57.428
G00 Z0.500
G01 Z-3.000 F2540
 X89.908 Y56.992 F5000
 X90.337 Y56.575
 X90.832 Y56.190
 X91.374 Y55.853
 X91.944 Y55.574
 X92.523 Y55.364
 X93.088 Y55.234
 X93.592 Y55.193
 X93.680 Y55.211
 X93.885 Y55.303
 X94.185 Y55.481
 X94.548 Y55.732
 X94.956 Y56.045
 X95.396 Y56.412
 X95.855 Y56.823
 X96.322 Y57.269
 X96.792 Y57.748
 X97.337 Y58.310
 X97.815 Y58.779
 X98.226 Y59.153
 X98.579 Y59.437
 X98.901 Y59.644
 X99.306 Y59.781
 X99.827 Y59.579
 X99.937 Y59.083
 X99.876 Y58.727
 X99.474 Y57.219
 X99.189 Y56.091
 X99.031 Y55.295
 X99.005 Y54.830
 X99.048 Y54.687
 X99.112 Y54.638
 X99.414 Y54.573
 X100.006 Y54.549
 X100.843
 X101.508 Y54.561
 X102.043 Y54.595
 X102.459 Y54.655
 X102.767 Y54.741
 X102.988 Y54.850
 X103.159 Y54.988
 X103.313 Y55.181
 X103.466 Y55.455
 X103.630 Y55.843
 X103.903 Y56.465
 X104.213 Y56.980
 X104.565 Y57.377
 X104.996 Y57.642
 X105.515 Y57.684
 X105.973 Y57.438
 X106.280 Y57.027
 X106.482 Y56.511
 X106.602 Y55.932
 X106.733 Y55.497
 X106.964 Y55.165
 X107.336 Y54.866
 X107.871 Y54.607
 X108.575 Y54.403
 X109.443 Y54.266
 X110.468 Y54.202
 X111.646 Y54.216
 X112.979 Y54.309
 X113.646 Y54.364
 X114.576 Y54.429
 X115.727 Y54.501
 X117.065 Y54.578
 X118.554 Y54.659
 X120.159 Y54.742
 X121.845 Y54.824
 X123.576 Y54.904
 X125.316 Y54.979
 X127.718 Y55.088
 X129.714 Y55.198
 X131.345 Y55.315
 X132.655 Y55.445
 X133.683 Y55.594
 X134.471 Y55.765
 X135.060 Y55.959
 X135.503 Y56.179
 X135.871 Y56.444
 X136.789 Y57.219
 X135.663 Y58.156
 X134.774 Y58.825
 X133.726 Y59.499
 X132.561 Y60.158
 X131.331 Y60.778
 X130.089 Y61.335
 X128.886 Y61.806
 X127.778 Y62.168
 X126.823 Y62.399
 X126.052 Y62.483
 X125.138 Y62.521
 X124.321 Y62.647
 X123.610 Y62.902
 X123.015 Y63.330
 X122.560 Y63.934
 X122.234 Y64.697
 X121.997 Y65.632
 X121.817 Y66.770
 X121.669 Y68.141
 X121.531 Y69.531
 X121.452 Y70.642
 X121.507 Y71.591
 X121.792 Y72.446
 X122.364 Y73.225
 X123.236 Y73.992
 X124.461 Y74.857
 X126.112 Y75.925
 X128.267 Y77.292
 X131.725 Y79.494
 X131.230 Y83.969
 X130.969 Y86.524
 X130.791 Y88.735
 X130.698 Y90.631
 X130.693 Y92.244
 X130.779 Y93.608
 X130.963 Y94.755
 X131.253 Y95.718
 X131.659 Y96.518
 X132.167 Y97.149
 X133.867 Y98.848
 X136.423 Y96.603
 X136.872 Y96.232
 X137.422 Y95.813
 X138.059 Y95.357
 X138.764 Y94.876
 X139.517 Y94.384
 X140.300 Y93.893
 X141.093 Y93.414
 X141.878 Y92.961
 X142.640 Y92.543
 X146.995 Y90.224
 Y85.881
 X147.040 Y84.372
 X147.176 Y83.231
 X147.391 Y82.473
 X147.629 Y82.115
 X147.839 Y82.020
 X148.211 Y82.084
 X148.841 Y82.441
 X149.677 Y83.134
 X150.697 Y84.159
 X151.230 Y84.723
 X151.682 Y85.179
 X152.055 Y85.529
 X152.372 Y85.784
 X152.716 Y85.976
 X153.288 Y85.971
 X153.516 Y85.451
 X153.483 Y85.074
 X153.402 Y84.756
 X153.272 Y83.679
 X153.490 Y82.760
 X153.983 Y81.962
 X154.683 Y81.329
 X155.505 Y80.911
 X156.356 Y80.749
 X157.147 Y80.864
 X157.829 Y81.275
 X158.396 Y82.081
 X158.594 Y82.553
 X158.725 Y82.974
 X158.777 Y83.323
 X158.757 Y83.637
 X158.660 Y83.965
 X158.466 Y84.349
 X158.153 Y84.808
 X157.713 Y85.358
 X157.129 Y86.025
 X156.631 Y86.645
 X156.310 Y87.228
 X156.218 Y87.852
 X156.557 Y88.395
 X157.146 Y88.604
 X157.812 Y88.613
 X158.610 Y88.493
 X159.571 Y88.255
 X160.699 Y87.900
 X161.563 Y87.610
 X162.240 Y87.399
 X162.755 Y87.266
 X163.119 Y87.210
 X163.350 Y87.216
 X163.492 Y87.260
 X163.627 Y87.350
 X163.801 Y87.532
 X164.010 Y87.803
 X164.281 Y88.270
 X164.392 Y88.673
 X164.378 Y89.045
 X164.239 Y89.424
 X163.951 Y89.829
 X163.493 Y90.254
 X162.859 Y90.686
 X162.049 Y91.113
 X161.060 Y91.531
 X157.826 Y92.766
 X158.959 Y96.308
 X159.203 Y97.094
 X159.385 Y97.747
 X159.507 Y98.279
 X159.570 Y98.705
 X159.581 Y99.036
 X159.549 Y99.293
 X159.478 Y99.511
 X159.361 Y99.725
 X159.203 Y99.937
 X158.811 Y100.282
 X158.323 Y100.512
 X157.741 Y100.638
 X157.104 Y100.653
 X156.455 Y100.558
 X155.837 Y100.358
 X155.292 Y100.064
 X154.855 Y99.690
 X154.529 Y99.219
 X154.211 Y98.589
 X153.885 Y98.041
 X153.479 Y97.600
 X152.934 Y97.332
 X152.286 Y97.281
 X151.535 Y97.396
 X150.610 Y97.647
 X149.434 Y98.025
 X147.941 Y98.530
 X146.049 Y99.208
 X144.304 Y99.905
 X142.706 Y100.622
 X141.250 Y101.363
 X139.932 Y102.131
 X138.748 Y102.930
 X137.694 Y103.762
 X136.767 Y104.630
 X135.973 Y105.528
 X134.645 Y107.181
 X133.498 Y108.586
 X132.499 Y109.781
 X131.624 Y110.790
 X130.851 Y111.640
 X130.155 Y112.359
 X129.512 Y112.973
 X128.896 Y113.511
 X128.278 Y114.003
 X126.558 Y115.315
 X124.028 Y112.924
 X123.138 Y112.122
 X122.125 Y111.294
 X120.943 Y110.410
 X119.540 Y109.435
 X117.863 Y108.335
 X115.856 Y107.072
 X113.467 Y105.612
 X110.642 Y103.920
 X107.339 Y101.967
 X106.259 Y101.245
 X105.180 Y100.359
 X104.116 Y99.333
 X103.093 Y98.197
 X102.138 Y96.985
 X101.277 Y95.726
 X100.533 Y94.455
 X99.931 Y93.206
 X99.493 Y92.005
 X99.377 Y91.555
 X99.276 Y91.039
 X99.195 Y90.478
 X99.135 Y89.887
 X99.097 Y89.283
 X99.083 Y88.680
 X99.093 Y88.093
 X99.127 Y87.540
 X99.188 Y87.019
 X99.282 Y86.272
 X99.323 Y85.561
 X99.300 Y84.871
 X99.202 Y84.178
 X99.024 Y83.459
 X98.762 Y82.689
 X98.410 Y81.835
 X97.962 Y80.866
 X97.410 Y79.748
 X95.003 Y74.974
 X90.077 Y78.593
 X87.259 Y80.567
 X84.648 Y82.196
 X82.242 Y83.482
 X80.044 Y84.427
 X78.061 Y85.033
 X76.296 Y85.304
 X74.752 Y85.251
 X73.421 Y84.886
 X72.266 Y84.207
 X71.707 Y83.716
 X71.292 Y83.233
 X71.028 Y82.773
 X70.898 Y82.326
 X70.886 Y81.865
 X70.999 Y81.358
 X71.252 Y80.786
 X71.656 Y80.148
 X72.222 Y79.435
 X73.416 Y78.051
 X74.998 Y79.560
 X75.786 Y80.266
 X76.460 Y80.768
 X77.054 Y81.078
 X77.709 Y81.157
 X78.194 Y80.677
 X78.202 Y80.032
 X78.008 Y79.366
 X77.650 Y78.566
 X77.122 Y77.607
 X75.924 Y75.575
 X76.991 Y74.711
 X77.546 Y74.276
 X77.982 Y73.983
 X78.306 Y73.834
 X78.543 Y73.798
 X78.781 Y73.848
 X79.108 Y74.024
 X79.547 Y74.371
 X80.105 Y74.896
 X80.801 Y75.603
 X83.952 Y78.862
 X83.247 Y75.005
 X82.973 Y73.483
 X82.801 Y72.305
 X82.760 Y71.425
 X82.859 Y70.783
 X83.108 Y70.274
 X83.568 Y69.775
 X84.316 Y69.219
 X85.387 Y68.561
 X86.801 Y67.750
 X91.106 Y65.297
 X97.143 Y66.400
 X98.253 Y66.609
 X99.297 Y66.817
 X100.259 Y67.021
 X101.120 Y67.215
 X101.861 Y67.395
 X102.461 Y67.556
 X102.823 Y67.668
 X102.773 Y67.765
 X102.659 Y67.970
 X102.526 Y68.197
 X102.375 Y68.438
 X102.212 Y68.688
 X102.030 Y68.953
 X101.796 Y69.320
 X101.596 Y69.708
 X101.441 Y70.107
 X101.331 Y70.521
 X101.267 Y70.948
 X101.248 Y71.391
 X101.272 Y71.850
 X101.336 Y72.329
 X101.437 Y72.825
 X101.527 Y73.214
 X101.616 Y73.599
 X101.702 Y73.981
 X101.784 Y74.352
 X101.861 Y74.701
 X101.930 Y75.022
 X101.989 Y75.305
 X102.037 Y75.541
 X102.073 Y75.732
 X102.178 Y76.208
 X102.352 Y76.648
 X102.683 Y77.020
 X103.170 Y77.190
 X103.705 Y77.164
 X104.307 Y77.012
 X105.040 Y76.748
 X105.952 Y76.372
 X107.078 Y75.880
 X107.737 Y75.595
 X108.384 Y75.327
 X109.007 Y75.081
 X109.594 Y74.860
 X110.130 Y74.671
 X110.600 Y74.517
 X110.988 Y74.404
 X111.269 Y74.338
 X111.456 Y74.316
 X112.005 Y74.265
 X112.541 Y74.049
 X112.942 Y73.622
 X113.134 Y73.045
 X113.157 Y72.374
 X113.054 Y71.580
 X112.837 Y70.625
 X112.510 Y69.479
 X112.072 Y68.118
 X111.660 Y66.906
 X111.309 Y65.935
 X110.993 Y65.173
 X110.686 Y64.581
 X110.344 Y64.129
 X109.929 Y63.815
 X109.452 Y63.672
 X108.966 Y63.669
 X108.483 Y63.741
 X106.279 Y64.036
 X103.966 Y64.132
 X101.592 Y64.042
 X99.230 Y63.778
 X96.952 Y63.354
 X94.831 Y62.784
 X92.939 Y62.084
 X91.353 Y61.273
 X90.123 Y60.362
 X89.726 Y59.982
 X89.414 Y59.651
 X89.201 Y59.378
 X89.078 Y59.158
 X89.022 Y58.974
 X89.012 Y58.788
 X89.050 Y58.554
 X89.148 Y58.249
 X89.304 Y57.880
 X89.561 Y57.428
G00 Z5.000
 X104.895 Y68.660
G00 Z0.500
G01 Z-3.000 F2540
 X105.347 Y68.110 F5000
 X105.866 Y67.701
 X106.427 Y67.423
 X106.998 Y67.278
 X107.544 Y67.263
 X108.029 Y67.371
 X108.429 Y67.589
 X108.735 Y67.916
 X108.951 Y68.401
 X109.145 Y69.198
 X109.255 Y69.867
 X109.270 Y70.384
 X109.199 Y70.771
 X109.048 Y71.076
 X108.787 Y71.361
 X108.372 Y71.653
 X107.780 Y71.958
 X107.005 Y72.284
 X106.540 Y72.458
 X106.084 Y72.612
 X105.649 Y72.743
 X105.245 Y72.850
 X104.884 Y72.929
 X104.578 Y72.978
 X104.347 Y72.998
 X104.260 Y72.994
 X104.169 Y72.901
 X104.055 Y72.634
 X103.980 Y72.212
 X103.968 Y71.679
 X104.026 Y71.076
 X104.151 Y70.440
 X104.342 Y69.802
 X104.594 Y69.196
 X104.895 Y68.660
G00 Z5.000
 X136.503 Y73.909
G00 Z0.500
G01 Z-3.000 F2540
 X136.631 Y73.490 F5000
 X136.861 Y73.039
 X137.191 Y72.578
 X137.617 Y72.128
 X138.141 Y71.701
 X139.190 Y70.996
 X140.217 Y70.393
 X141.234 Y69.890
 X142.262 Y69.482
 X143.324 Y69.159
 X144.442 Y68.915
 X145.639 Y68.745
 X146.935 Y68.643
 X148.356 Y68.605
 X151.620 Y68.586
 X151.187 Y69.065
 X150.174 Y69.928
 X148.657 Y70.885
 X146.774 Y71.874
 X144.686 Y72.828
 X142.549 Y73.683
 X140.518 Y74.376
 X138.754 Y74.846
 X137.451 Y75.033
 X136.811 Y74.929
 X136.649 Y74.787
 X136.525 Y74.562
 X136.472 Y74.271
 X136.503 Y73.909
G00 Z5.000
 X116.192 Y111.045
G00 Z0.500
G01 Z-3.000 F2540
 X116.832 Y111.373 F5000
 X117.504 Y111.729
 X118.193 Y112.106
 X118.988 Y112.563
 X119.690 Y112.998
 X120.297 Y113.410
 X120.811 Y113.799
 X121.229 Y114.162
 X121.550 Y114.494
 X121.776 Y114.790
 X121.911 Y115.040
 X121.963 Y115.222
 X121.931 Y115.811
 X121.661 Y116.653
 X121.134 Y117.726
 X120.358 Y118.995
 X119.344 Y120.439
 X118.101 Y122.039
 X116.640 Y123.781
 X114.970 Y125.651
 X113.098 Y127.639
 X112.210 Y128.576
 X111.382 Y129.485
 X110.631 Y130.345
 X109.968 Y131.142
 X109.406 Y131.858
 X108.957 Y132.482
 X108.626 Y133.010
 X108.408 Y133.484
 X108.395 Y133.893
 X108.577 Y134.347
 X108.621 Y134.733
 X108.584 Y135.205
 X108.465 Y135.722
 X108.272 Y136.248
 X108.016 Y136.748
 X107.712 Y137.190
 X107.378 Y137.542
 X107.018 Y137.796
 X106.749 Y137.927
 X106.538 Y137.997
 X106.403 Y138.010
 X106.304 Y137.990
 X106.178 Y137.920
 X105.998 Y137.756
 X105.767 Y137.476
 X105.488 Y137.075
 X105.157 Y136.549
 X102.958 Y132.941
 X102.954 Y137.198
 X102.850 Y138.415
 X102.569 Y139.434
 X102.141 Y140.260
 X101.600 Y140.885
 X100.973 Y141.304
 X100.280 Y141.516
 X99.524
 X98.711 Y141.275
 X97.852 Y140.761
 X97.498 Y140.440
 X97.244 Y140.094
 X97.082 Y139.719
 X97.004 Y139.297
 X97.016 Y138.811
 X97.125 Y138.253
 X97.341 Y137.621
 X97.667 Y136.915
 X98.109 Y136.132
 X99.846 Y133.284
 X97.285 Y133.465
 X96.202 Y133.397
 X95.584 Y133.109
 X95.286 Y132.699
 X95.216 Y132.140
 X95.408 Y131.424
 X95.892 Y130.628
 X96.661 Y129.843
 X97.700 Y129.150
 X99.023 Y128.609
 X99.758 Y128.356
 X100.479 Y128.006
 X101.186 Y127.513
 X101.915 Y126.833
 X102.716 Y125.918
 X103.645 Y124.710
 X104.756 Y123.151
 X106.104 Y121.178
 X107.740 Y118.733
 X108.813 Y117.137
 X109.844 Y115.635
 X110.816 Y114.250
 X111.708 Y113.010
 X112.501 Y111.940
 X113.175 Y111.069
 X113.705 Y110.426
 X114.037 Y110.074
 X114.236 Y110.142
 X114.604 Y110.293
 X115.064 Y110.498
 X115.599 Y110.751
 X116.192 Y111.045
G00 Z5.000
 X111.775 Y137.666
G00 Z0.500
G01 Z-3.000 F2540
 X111.800 Y137.737 F5000
 X111.859 Y138.179
 X111.879 Y138.825
 X111.857 Y139.204
 X111.794 Y139.570
 X111.687 Y139.935
 X111.534 Y140.303
 X111.331 Y140.678
 X111.075 Y141.062
 X110.763 Y141.458
 X110.393 Y141.867
 X109.963 Y142.291
 X109.257 Y142.930
 X108.657 Y143.418
 X108.159 Y143.756
 X107.763 Y143.948
 X107.465 Y144.016
 X107.232 Y143.997
 X106.995 Y143.896
 X106.714 Y143.678
 X106.383 Y143.322
 X106.223 Y143.116
 X106.113 Y142.945
 X106.055 Y142.817
 X106.033 Y142.727
 Y142.653
 X106.055 Y142.563
 X106.113 Y142.435
 X106.223 Y142.264
 X106.385 Y142.055
 X106.514 Y141.913
 X106.658 Y141.778
 X106.815 Y141.652
 X106.978 Y141.539
 X107.141 Y141.443
 X107.297 Y141.368
 X107.437 Y141.315
 X107.550 Y141.286
 X107.693 Y141.273
 X107.940 Y141.229
 X108.231 Y141.107
 X108.518 Y140.940
 X108.812 Y140.732
 X109.115 Y140.487
 X109.423 Y140.207
 X109.732 Y139.898
 X110.037 Y139.564
 X110.325 Y139.217
 X110.899 Y138.516
 X111.361 Y138.011
 X111.705 Y137.706
 X111.775 Y137.666
G00 Z5.000
 X105.918 Y181.691
G00 Z0.500
G01 Z-3.000 F2540
 X106.502 Y181.835 F5000
 X106.779 Y181.989
 X106.823 Y182.058
 X106.813 Y182.162
 X106.621 Y182.468
 X106.154 Y182.919
 X105.434 Y183.443
 X104.632 Y183.813
 X103.724 Y183.976
 X102.740 Y183.950
 X101.746 Y183.750
 X100.811 Y183.397
 X100.000 Y182.918
 X99.377 Y182.350
 X98.991 Y181.737
 X98.853 Y181.067
 X98.880 Y181.015
 X99.040 Y181.068
 X99.280 Y181.173
 X99.574 Y181.280
 X99.962 Y181.375
 X100.412 Y181.453
 X100.920 Y181.517
 X101.475 Y181.567
 X102.067 Y181.603
 X102.685 Y181.623
 X103.316 Y181.627
 X103.936 Y181.613
 X105.059
 X105.918 Y181.691
G00 Z5.000
 X150.381 Y166.859
G00 Z0.500
G01 Z-3.000 F2540
 X150.148 Y166.138 F5000
 X149.976 Y165.371
 X149.874 Y164.605
 X149.847 Y163.889
 X149.897 Y163.278
 X150.013 Y162.835
 X150.149 Y162.616
 X150.450 Y162.442
 X150.707 Y162.478
 X151.076 Y162.765
 X151.482 Y163.346
 X151.837 Y164.152
 X152.093 Y165.101
 X152.213 Y166.112
 X152.172 Y167.111
 X151.941 Y168.056
 X151.661 Y168.802
 X150.998 Y167.990
 X150.665 Y167.484
 X150.381 Y166.859
G00 Z5.000
 X180.827 Y143.497
G00 Z0.500
G01 Z-3.000 F2540
 X180.611 Y143.034 F5000
 X180.506 Y142.476
 X180.523 Y141.896
 X180.659 Y141.372
 X180.890 Y140.973
 X181.181 Y140.737
 X181.577 Y140.646
 X181.640 Y140.653
 X181.694 Y140.675
 X181.741 Y140.713
 X181.803 Y140.801
 X181.872 Y140.963
 X181.936 Y141.207
 X181.985 Y141.532
 X182.015 Y141.937
 X182.025 Y142.419
 X182.016 Y142.954
 X181.990 Y143.381
 X181.944 Y143.697
 X181.888 Y143.896
 X181.825 Y143.998
 X181.701 Y144.015
 X181.549 Y143.996
 X181.127 Y143.815
 X180.827 Y143.497
G00 Z5.000
 X179.209 Y146.460
G00 Z0.500
G01 Z-3.000 F2540
 X178.873 Y146.278 F5000
 X178.530 Y146.136
 X178.182 Y146.041
 X177.864 Y146.007
 X177.605 Y145.998
 X177.370 Y145.977
 X177.132 Y145.944
 X176.899 Y145.900
 X176.678 Y145.848
 X176.478 Y145.790
 X176.306 Y145.728
 X176.174 Y145.668
 X176.118 Y145.635
 X175.577 Y145.056
 X174.580 Y143.762
 X173.281 Y141.960
 X171.809 Y139.838
 X170.284 Y137.576
 X168.827 Y135.352
 X167.559 Y133.347
 X166.604 Y131.744
 X166.087 Y130.739
 X165.717 Y129.650
 X165.397 Y128.350
 X165.137 Y126.921
 X164.946 Y125.437
 X164.830 Y123.970
 X164.794 Y122.595
 X164.842 Y121.386
 X164.975 Y120.431
 X165.188 Y119.782
 X165.463 Y119.253
 X165.692 Y118.831
 X165.881 Y118.538
 X166.059 Y118.336
 X166.269 Y118.173
 X166.575 Y118.008
 X167.023 Y117.821
 X167.642 Y117.593
 X168.455 Y117.304
 X168.899 Y117.150
 X169.342 Y117.004
 X169.776 Y116.869
 X170.190 Y116.747
 X170.575 Y116.642
 X170.920 Y116.555
 X171.213 Y116.490
 X171.438 Y116.449
 X171.535 Y116.440
 X172.533 Y116.630
 X173.934 Y117.249
 X175.623 Y118.240
 X177.475 Y119.515
 X179.378 Y120.994
 X181.227 Y122.595
 X182.917 Y124.233
 X184.341 Y125.826
 X185.403 Y127.293
 X186.114 Y128.542
 X186.687 Y129.771
 X187.123 Y131.007
 X187.429 Y132.283
 X187.610 Y133.640
 X187.671 Y135.111
 X187.613 Y136.733
 X187.439 Y138.537
 X187.152 Y140.556
 X186.902 Y141.996
 X186.632 Y143.333
 X186.357 Y144.526
 X186.090 Y145.533
 X186.005 Y145.799
 X185.917 Y145.627
 X185.453 Y145.354
 X184.941 Y145.400
 X184.515 Y145.635
 X184.144 Y145.983
 X183.805 Y146.434
 X183.497 Y146.983
 X182.970 Y148.261
 X182.699 Y148.713
 X182.445 Y148.981
 X182.234 Y149.096
 X182.041 Y149.113
 X181.793 Y149.036
 X181.465 Y148.812
 X181.077 Y148.413
 X180.415 Y147.510
 X180.145 Y147.206
 X179.850 Y146.928
 X179.536 Y146.678
 X179.209 Y146.460
G00 Z5.000
 X174.728 Y149.216
G00 Z0.500
G01 Z-3.000 F2540
 X174.424 Y148.765 F5000
 X174.044 Y148.242
 X173.594 Y147.655
 X173.082 Y147.016
 X172.517 Y146.335
 X171.911 Y145.629
 X170.598 Y144.072
 X169.367 Y142.508
 X168.213 Y140.929
 X167.133 Y139.330
 X166.124 Y137.709
 X165.185 Y136.060
 X164.312 Y134.381
 X163.504 Y132.667
 X162.757 Y130.912
 X162.356 Y129.888
 X162.036 Y128.989
 X161.793 Y128.184
 X161.619 Y127.441
 X161.508 Y126.723
 X161.453 Y125.993
 X161.450 Y125.213
 X161.495 Y124.349
 X161.584 Y123.369
 X161.765 Y121.942
 X161.992 Y120.736
 X162.281 Y119.724
 X162.644 Y118.875
 X163.096 Y118.152
 X163.659 Y117.516
 X164.362 Y116.930
 X165.230 Y116.368
 X166.283 Y115.806
 X167.411 Y115.294
 X168.455 Y114.921
 X169.442 Y114.685
 X170.399 Y114.582
 X171.358 Y114.611
 X172.352 Y114.773
 X173.411 Y115.073
 X174.561 Y115.517
 X175.820 Y116.103
 X177.309 Y116.930
 X178.845 Y117.939
 X180.389 Y119.095
 X181.899 Y120.360
 X183.333 Y121.696
 X184.651 Y123.064
 X185.810 Y124.424
 X186.769 Y125.735
 X187.491 Y126.958
 X188.079 Y128.293
 X188.593 Y129.819
 X189.025 Y131.501
 X189.369 Y133.305
 X189.619 Y135.195
 X189.772 Y137.138
 X189.823 Y139.100
 X189.766 Y141.049
 X189.598 Y142.962
 X189.508 Y143.877
 X189.435 Y144.962
 X189.380 Y146.172
 X189.344 Y147.477
 X189.326 Y148.845
 Y150.244
 X189.348 Y151.643
 X189.388 Y153.009
 X189.449 Y154.307
 X189.550 Y156.201
 X189.611 Y157.742
 X189.626 Y158.994
 X189.588 Y160.014
 X189.494 Y160.864
 X189.338 Y161.612
 X189.111 Y162.330
 X188.802 Y163.089
 X188.405 Y163.940
 X187.669 Y165.288
 X186.769 Y166.625
 X185.716 Y167.947
 X184.523 Y169.238
 X183.207 Y170.482
 X181.782 Y171.665
 X180.263 Y172.772
 X178.665 Y173.789
 X176.999 Y174.705
 X175.867 Y175.269
 X174.905 Y175.718
 X174.085 Y176.057
 X173.367 Y176.297
 X172.711 Y176.452
 X172.071 Y176.533
 X171.397 Y176.550
 X170.644 Y176.511
 X169.774 Y176.422
 X169.190 Y176.342
 X168.610 Y176.243
 X168.047 Y176.127
 X167.514 Y175.999
 X167.024 Y175.863
 X166.592 Y175.722
 X166.233 Y175.583
 X165.968 Y175.455
 X165.789 Y175.337
 X165.549 Y175.148
 X165.291 Y174.980
 X165.019 Y174.855
 X164.713 Y174.796
 X164.393 Y174.841
 X164.114 Y174.989
 X163.896 Y175.194
 X163.717 Y175.434
 X163.573 Y175.671
 X163.464 Y175.810
 X163.291 Y175.948
 X163.017 Y176.102
 X162.646 Y176.258
 X162.186 Y176.409
 X161.643 Y176.550
 X161.021 Y176.678
 X160.325 Y176.793
 X159.545 Y176.893
 X158.583 Y177.032
 X157.571 Y177.242
 X156.503 Y177.526
 X155.361 Y177.891
 X154.128 Y178.342
 X152.784 Y178.888
 X151.310 Y179.533
 X143.554 Y183.191
 X142.134 Y183.818
 X140.779 Y184.398
 X139.524 Y184.915
 X138.403 Y185.355
 X137.451 Y185.702
 X136.709 Y185.942
 X135.149 Y186.322
 X133.446 Y186.601
 X131.627 Y186.779
 X129.723 Y186.857
 X127.766 Y186.832
 X125.788 Y186.707
 X123.818 Y186.481
 X121.889 Y186.155
 X120.026 Y185.729
 X118.926 Y185.424
 X117.956 Y185.109
 X117.084 Y184.767
 X116.269 Y184.374
 X115.467 Y183.909
 X114.640 Y183.345
 X113.747 Y182.660
 X112.754 Y181.831
 X111.625 Y180.838
 X110.810 Y180.082
 X109.996 Y179.276
 X109.195 Y178.437
 X108.425 Y177.582
 X107.699 Y176.732
 X107.036 Y175.903
 X106.449 Y175.116
 X105.956 Y174.390
 X105.569 Y173.740
 X105.093 Y172.841
 X104.716 Y172.056
 X104.431 Y171.352
 X104.226 Y170.681
 X104.088 Y169.994
 X104.008 Y169.238
 X103.980 Y168.366
 X103.996 Y167.333
 X104.048 Y166.108
 X104.228 Y164.083
 X104.566 Y162.183
 X105.080 Y160.361
 X105.790 Y158.578
 X106.717 Y156.793
 X107.881 Y154.967
 X109.305 Y153.064
 X111.009 Y151.049
 X113.010 Y148.886
 X115.790 Y146.072
 X118.239 Y143.809
 X120.452 Y142.054
 X122.528 Y140.760
 X124.568 Y139.875
 X126.687 Y139.346
 X129.000 Y139.128
 X131.618 Y139.182
 X134.641 Y139.471
 X136.720 Y139.750
 X138.519 Y140.053
 X140.042 Y140.380
 X141.292 Y140.734
 X142.274 Y141.112
 X142.989 Y141.506
 X143.447 Y141.900
 X143.683 Y142.276
 X143.766 Y142.718
 X143.779 Y142.949
 X143.828 Y143.228
 X143.908 Y143.492
 X144.018 Y143.736
 X144.159 Y143.959
 X144.335 Y144.156
 X144.550 Y144.318
 X144.806 Y144.430
 X145.089 Y144.470
 X145.563 Y144.409
 X146.015 Y144.250
 X146.438 Y144.016
 X146.829 Y143.722
 X147.181 Y143.380
 X147.485 Y142.999
 X147.727 Y142.584
 X147.893 Y142.139
 X147.965 Y141.612
 X147.691 Y140.907
 X147.048 Y140.280
 X146.161 Y139.706
 X145.056 Y139.158
 X143.771 Y138.646
 X142.350 Y138.183
 X140.841 Y137.790
 X139.292 Y137.484
 X137.763 Y137.289
 X136.981 Y137.211
 X136.246 Y137.122
 X135.559 Y137.023
 X134.935 Y136.917
 X134.390 Y136.809
 X133.939 Y136.700
 X133.605 Y136.599
 X133.434 Y136.526
 X133.358 Y136.466
 X133.178 Y136.322
 X132.844 Y136.190
 X132.463 Y136.094
 X132.013 Y136.013
 X131.494 Y135.944
 X130.916 Y135.889
 X130.287 Y135.848
 X129.618 Y135.822
 X128.926 Y135.813
 X128.248 Y135.809
 X127.615 Y135.798
 X127.032 Y135.780
 X126.511 Y135.757
 X126.065 Y135.728
 X125.797 Y135.704
 X125.813 Y135.664
 X125.967 Y135.294
 X126.156 Y134.852
 X126.376 Y134.348
 X126.622 Y133.794
 X126.888 Y133.201
 X127.174 Y132.573
 X127.476 Y131.859
 X127.786 Y131.030
 X128.093 Y130.117
 X128.392 Y129.141
 X128.678 Y128.126
 X128.943 Y127.093
 X129.181 Y126.068
 X129.385 Y125.072
 X129.548 Y124.134
 X129.773 Y122.723
 X129.976 Y121.611
 X130.180 Y120.748
 X130.407 Y120.088
 X130.677 Y119.571
 X131.021 Y119.124
 X131.485 Y118.682
 X132.107 Y118.193
 X132.913 Y117.615
 X135.402 Y115.861
 X137.306 Y117.532
 X138.832 Y118.746
 X140.471 Y119.808
 X142.207 Y120.707
 X144.031 Y121.441
 X145.936 Y122.008
 X147.915 Y122.407
 X149.961 Y122.636
 X152.066 Y122.693
 X154.213 Y122.577
 X155.582 Y122.454
 X156.605 Y122.404
 X157.304 Y122.463
 X157.722 Y122.628
 X158.004 Y122.929
 X158.245 Y123.513
 X158.443 Y124.470
 X158.615 Y125.823
 X158.797 Y127.608
 X158.896 Y128.389
 X159.038 Y129.229
 X159.217 Y130.103
 X159.429 Y130.990
 X159.666 Y131.872
 X159.925 Y132.728
 X160.199 Y133.540
 X160.486 Y134.287
 X160.782 Y134.959
 X161.876 Y136.916
 X163.381 Y139.169
 X165.161 Y141.567
 X167.088 Y143.963
 X169.031 Y146.207
 X170.861 Y148.147
 X172.456 Y149.641
 X173.762 Y150.583
 X175.092 Y150.745
 X175.114 Y149.963
 X174.953 Y149.595
 X174.728 Y149.216
G00 Z5.000
 X191.916 Y149.007
G00 Z0.500
G01 Z-3.000 F2540
 X191.837 Y146.994 F5000
 X191.775 Y144.869
 X191.730 Y142.674
 X191.706 Y140.453
 X191.681 Y136.936
 X191.644 Y134.130
 X191.581 Y131.916
 X191.478 Y130.173
 X191.320 Y128.779
 X191.092 Y127.620
 X190.780 Y126.588
 X190.377 Y125.578
 X189.872 Y124.471
 X189.511 Y123.754
 X189.083 Y122.996
 X188.602 Y122.218
 X188.082 Y121.435
 X187.534 Y120.664
 X186.970 Y119.923
 X186.403 Y119.230
 X185.843 Y118.600
 X185.297 Y118.046
 X184.034 Y116.978
 X182.486 Y115.883
 X180.741 Y114.801
 X178.880 Y113.770
 X176.985 Y112.831
 X175.137 Y112.025
 X173.418 Y111.391
 X171.897 Y110.972
 X170.654 Y110.817
 X169.528 Y110.891
 X168.409 Y111.113
 X167.288 Y111.483
 X166.164 Y111.998
 X165.037 Y112.656
 X163.907 Y113.456
 X162.772 Y114.397
 X161.631 Y115.479
 X160.487 Y116.696
 X157.518 Y120.028
 X153.109 Y119.737
 X151.324 Y119.561
 X149.607 Y119.279
 X147.963 Y118.894
 X146.404 Y118.411
 X144.942 Y117.836
 X143.589 Y117.174
 X142.356 Y116.430
 X141.254 Y115.610
 X140.287 Y114.713
 X139.776 Y114.166
 X139.378 Y113.695
 X139.092 Y113.286
 X138.899 Y112.910
 X138.779 Y112.524
 X138.717 Y112.080
 X138.709 Y111.534
 X138.752 Y110.855
 X138.840 Y110.021
 X138.949 Y109.189
 X139.077 Y108.510
 X139.239 Y107.954
 X139.453 Y107.479
 X139.744 Y107.034
 X140.146 Y106.576
 X140.690 Y106.071
 X141.398 Y105.489
 X142.288 Y104.805
 X143.423 Y103.984
 X144.564 Y103.226
 X145.693 Y102.540
 X146.791 Y101.935
 X147.836 Y101.422
 X148.806 Y101.009
 X149.680 Y100.708
 X150.429 Y100.526
 X151.020 Y100.467
 X151.137 Y100.482
 X151.317 Y100.535
 X151.546 Y100.634
 X151.807 Y100.773
 X152.086 Y100.949
 X152.374 Y101.154
 X152.661 Y101.385
 X152.939 Y101.635
 X153.221 Y101.921
 X153.885 Y102.513
 X154.672 Y102.996
 X155.530 Y103.349
 X156.435 Y103.572
 X157.363 Y103.664
 X158.292 Y103.623
 X159.200 Y103.446
 X160.063 Y103.126
 X160.845 Y102.663
 X161.192 Y102.372
 X161.487 Y102.042
 X161.731 Y101.661
 X161.924 Y101.230
 X162.069 Y100.746
 X162.172 Y100.203
 X162.241 Y99.591
 X162.280 Y98.899
 X162.293 Y98.121
 X162.302 Y97.210
 X162.335 Y96.497
 X162.402 Y95.956
 X162.508 Y95.560
 X162.657 Y95.266
 X162.872 Y95.011
 X163.195 Y94.750
 X163.657 Y94.459
 X164.275 Y94.118
 X164.867 Y93.786
 X165.376 Y93.457
 X165.807 Y93.112
 X166.164 Y92.731
 X166.444 Y92.302
 X166.649 Y91.823
 X166.791 Y91.291
 X166.887 Y90.695
 X166.954 Y90.002
 X166.961 Y89.018
 X166.832 Y88.092
 X166.568 Y87.248
 X166.173 Y86.496
 X165.653 Y85.852
 X165.017 Y85.332
 X164.278 Y84.949
 X163.450 Y84.715
 X162.583 Y84.639
 X162.222 Y84.620
 X161.974 Y84.568
 X161.785 Y84.484
 X161.616 Y84.352
 X161.441 Y84.138
 X161.253 Y83.812
 X161.055 Y83.359
 X160.844 Y82.772
 X160.613 Y82.040
 X160.352 Y81.198
 X160.108 Y80.506
 X159.852 Y79.938
 X159.546 Y79.470
 X159.160 Y79.106
 X158.693 Y78.856
 X158.161 Y78.703
 X157.554 Y78.608
 X156.833 Y78.539
 X156.299 Y78.510
 X155.782 Y78.513
 X155.288 Y78.547
 X154.818 Y78.613
 X154.375 Y78.710
 X153.961 Y78.840
 X153.578 Y79.005
 X153.230 Y79.205
 X152.950 Y79.423
 X152.711 Y79.613
 X152.482 Y79.752
 X152.230 Y79.863
 X151.950 Y79.947
 X151.635 Y80.004
 X151.281 Y80.032
 X150.886
 X150.448 Y79.996
 X149.954 Y79.929
 X149.368 Y79.847
 X148.827 Y79.806
 X148.327 Y79.813
 X147.858 Y79.875
 X147.415 Y80.000
 X146.997 Y80.190
 X146.600 Y80.441
 X146.213 Y80.750
 X145.823 Y81.118
 X145.429 Y81.534
 X145.102 Y81.943
 X144.841 Y82.372
 X144.654 Y82.837
 X144.543 Y83.344
 X144.499 Y83.902
 X144.513 Y84.530
 X144.574 Y85.252
 X144.677 Y86.096
 X145.045 Y88.872
 X140.540 Y90.925
 X139.664 Y91.319
 X138.818 Y91.690
 X138.017 Y92.031
 X137.278 Y92.337
 X136.616 Y92.601
 X136.050 Y92.815
 X135.598 Y92.973
 X135.373 Y93.041
 X135.344 Y92.942
 X135.291 Y92.574
 X135.259 Y92.056
 X135.253 Y91.397
 X135.274 Y90.601
 X135.321 Y89.666
 X135.396 Y88.587
 X135.457 Y87.646
 X135.497 Y86.693
 X135.515 Y85.752
 Y84.843
 X135.492 Y83.985
 X135.451 Y83.196
 X135.390 Y82.495
 X135.308 Y81.895
 X135.206 Y81.431
 X135.070 Y80.915
 X134.991 Y80.515
 X134.965 Y80.202
 X134.985 Y79.962
 X135.047 Y79.762
 X135.160 Y79.561
 X135.349 Y79.333
 X135.629 Y79.067
 X135.991 Y78.769
 X136.315 Y78.558
 X136.805 Y78.307
 X137.445 Y78.023
 X138.208 Y77.721
 X139.069 Y77.410
 X140.006 Y77.097
 X140.997 Y76.791
 X142.020 Y76.500
 X143.059 Y76.230
 X144.676 Y75.820
 X146.022 Y75.446
 X147.160 Y75.070
 X148.154 Y74.657
 X149.059 Y74.174
 X149.931 Y73.589
 X150.832 Y72.873
 X155.027 Y69.048
 X155.627 Y68.529
 X156.164 Y68.081
 X156.620 Y67.717
 X156.977 Y67.453
 X157.195 Y67.314
 X157.241 Y67.296
 X157.310 Y67.290
 X157.484 Y67.243
 X157.644 Y67.168
 X157.787 Y67.068
 X157.911 Y66.946
 X158.014 Y66.804
 X158.091 Y66.644
 X158.140 Y66.470
 X158.178 Y66.059
 X157.647 Y65.645
 X156.875 Y65.513
 X155.860 Y65.466
 X154.562 Y65.480
 X153.015 Y65.551
 X151.264 Y65.677
 X149.354 Y65.854
 X147.333 Y66.082
 X145.246 Y66.357
 X143.635 Y66.615
 X142.189 Y66.916
 X140.871 Y67.277
 X139.648 Y67.716
 X138.487 Y68.250
 X137.356 Y68.894
 X136.222 Y69.661
 X135.050 Y70.565
 X133.808 Y71.617
 X132.834 Y72.436
 X131.991 Y73.052
 X131.243 Y73.478
 X130.553 Y73.730
 X129.871 Y73.830
 X129.135 Y73.784
 X128.289 Y73.590
 X127.297 Y73.240
 X126.128 Y72.740
 X125.170 Y72.272
 X124.423 Y71.829
 X123.881 Y71.401
 X123.522 Y70.977
 X123.311 Y70.533
 X123.219 Y70.016
 X123.246 Y69.377
 X123.400 Y68.590
 X123.681 Y67.640
 X123.914 Y66.970
 X124.139 Y66.457
 X124.390 Y66.071
 X124.716 Y65.752
 X125.191 Y65.446
 X125.883 Y65.129
 X126.838 Y64.781
 X128.095 Y64.378
 X129.699 Y63.892
 X132.106 Y63.117
 X134.146 Y62.335
 X135.830 Y61.533
 X137.177 Y60.691
 X138.198 Y59.783
 X138.893 Y58.785
 X139.244 Y57.693
 X139.247 Y56.533
 X138.930 Y55.306
 X138.508 Y54.561
 X137.829 Y53.938
 X136.912 Y53.448
 X135.745 Y53.069
 X134.301 Y52.781
 X132.547 Y52.572
 X130.453 Y52.432
 X127.991 Y52.356
 X125.135 Y52.338
 X123.655
 X122.163 Y52.327
 X120.688 Y52.309
 X119.263 Y52.282
 X117.919 Y52.249
 X116.690 Y52.210
 X115.607 Y52.166
 X114.706 Y52.117
 X114.013 Y52.065
 X111.344 Y51.838
 X108.661 Y51.653
 X106.031 Y51.509
 X103.516 Y51.411
 X101.176 Y51.357
 X99.072 Y51.351
 X97.262 Y51.393
 X95.801 Y51.486
 X94.749 Y51.635
 X93.382 Y51.964
 X92.115 Y52.334
 X90.948 Y52.741
 X89.894 Y53.181
 X88.964 Y53.647
 X88.168 Y54.139
 X87.515 Y54.657
 X87.018 Y55.210
 X86.714 Y55.798
 X86.575 Y56.457
 X86.528 Y57.184
 X86.557 Y57.975
 X86.651 Y58.808
 X86.806 Y59.660
 X87.017 Y60.504
 X87.278 Y61.314
 X87.589 Y62.065
 X87.934 Y62.707
 X88.139 Y63.062
 X88.194 Y63.250
 X88.163 Y63.404
 X87.939 Y63.722
 X87.381 Y64.240
 X86.441 Y64.965
 X85.073 Y65.931
 X83.229 Y67.185
 X80.850 Y68.780
 X78.624 Y70.321
 X76.600 Y71.829
 X74.785 Y73.297
 X73.184 Y74.722
 X71.800 Y76.102
 X70.636 Y77.436
 X69.696 Y78.722
 X68.985 Y79.961
 X68.516 Y81.143
 X68.239 Y82.239
 X68.106 Y83.221
 X68.128 Y84.118
 X68.326 Y84.933
 X68.710 Y85.655
 X69.275 Y86.271
 X70.004 Y86.784
 X70.890 Y87.213
 X71.936 Y87.577
 X73.683 Y88.031
 X75.317 Y88.277
 X76.911 Y88.286
 X78.523 Y88.030
 X80.212 Y87.491
 X82.047 Y86.652
 X84.104 Y85.494
 X86.460 Y83.997
 X89.190 Y82.136
 X93.710 Y78.986
 X94.708 Y80.255
 X95.120 Y80.824
 X95.456 Y81.404
 X95.737 Y82.051
 X95.976 Y82.818
 X96.179 Y83.753
 X96.355 Y84.899
 X96.511 Y86.298
 X96.655 Y87.990
 X96.796 Y90.027
 X97.019 Y92.268
 X97.401 Y94.321
 X97.963 Y96.205
 X98.723 Y97.945
 X99.699 Y99.567
 X100.905 Y101.095
 X102.355 Y102.557
 X104.063 Y103.984
 X106.039 Y105.403
 X106.950 Y106.031
 X107.799 Y106.641
 X108.578 Y107.226
 X109.273 Y107.773
 X109.866 Y108.270
 X110.342 Y108.700
 X110.678 Y109.044
 X110.808 Y109.211
 X110.625 Y109.674
 X109.963 Y110.890
 X108.974 Y112.541
 X107.766 Y114.462
 X106.437 Y116.500
 X105.085 Y118.505
 X103.809 Y120.326
 X102.709 Y121.810
 X101.887 Y122.804
 X101.574 Y123.124
 X101.202 Y123.469
 X100.788 Y123.825
 X100.345 Y124.182
 X99.886 Y124.531
 X99.421 Y124.861
 X98.963 Y125.165
 X98.525 Y125.433
 X98.101 Y125.667
 X96.593 Y126.568
 X95.308 Y127.603
 X94.275 Y128.742
 X93.505 Y129.969
 X93.014 Y131.261
 X92.816 Y132.596
 X92.924 Y133.944
 X93.345 Y135.273
 X94.063 Y136.527
 X94.310 Y136.893
 X94.514 Y137.230
 X94.690 Y137.557
 X94.834 Y137.863
 X94.943 Y138.140
 X95.014 Y138.372
 X95.045 Y138.541
 Y138.612
 X95.027 Y138.670
 X94.956 Y138.866
 X94.926 Y139.171
 X94.938 Y139.489
 X94.983 Y139.834
 X95.055 Y140.207
 X95.154 Y140.603
 X95.278 Y141.018
 X95.425 Y141.445
 X95.599 Y141.887
 X95.995 Y142.671
 X96.489 Y143.368
 X97.065 Y143.958
 X97.711 Y144.434
 X98.414 Y144.786
 X99.162 Y145.006
 X99.939 Y145.086
 X100.730 Y145.018
 X101.458 Y144.812
 X101.636 Y144.773
 X101.863 Y144.770
 X102.177 Y144.805
 X102.556 Y144.881
 X102.982 Y144.998
 X103.445 Y145.152
 X103.931 Y145.342
 X104.431 Y145.565
 X104.941 Y145.820
 X105.718 Y146.225
 X106.376 Y146.543
 X106.947 Y146.777
 X107.466 Y146.925
 X107.963 Y146.979
 X108.445 Y146.930
 X108.913 Y146.790
 X109.386 Y146.576
 X109.910 Y146.294
 X110.275 Y146.066
 X110.665 Y145.779
 X111.067 Y145.447
 X111.475 Y145.077
 X111.881 Y144.679
 X112.277 Y144.259
 X112.655 Y143.827
 X113.006 Y143.390
 X113.319 Y142.958
 X113.747 Y142.306
 X114.093 Y141.701
 X114.361 Y141.095
 X114.549 Y140.453
 X114.659 Y139.748
 X114.702 Y138.944
 X114.688 Y138.000
 X114.626 Y136.868
 X114.523 Y135.504
 X114.145 Y130.803
 X117.942 Y126.631
 X118.671 Y125.818
 X119.399 Y124.985
 X120.108 Y124.152
 X120.785 Y123.338
 X121.415 Y122.559
 X121.982 Y121.834
 X122.474 Y121.181
 X122.877 Y120.614
 X123.172 Y120.158
 X123.600 Y119.454
 X123.942 Y118.943
 X124.207 Y118.625
 X124.380 Y118.491
 X124.473 Y118.466
 X124.613 Y118.492
 X124.889 Y118.635
 X125.295 Y118.928
 X125.812 Y119.349
 X126.347 Y119.864
 X126.763 Y120.411
 X127.077 Y121.012
 X127.294 Y121.684
 X127.415 Y122.443
 X127.438 Y123.302
 X127.360 Y124.271
 X127.180 Y125.357
 X126.897 Y126.558
 X126.279 Y128.450
 X125.399 Y130.392
 X124.228 Y132.422
 X122.739 Y134.571
 X120.907 Y136.869
 X118.706 Y139.345
 X116.112 Y142.029
 X113.102 Y144.949
 X109.647 Y148.139
 X108.677 Y149.043
 X107.803 Y149.916
 X107.014 Y150.777
 X106.293 Y151.649
 X105.627 Y152.553
 X104.999 Y153.508
 X104.394 Y154.537
 X103.796 Y155.660
 X103.187 Y156.898
 X102.528 Y158.309
 X101.996 Y159.523
 X101.576 Y160.609
 X101.256 Y161.631
 X101.022 Y162.647
 X100.862 Y163.715
 X100.761 Y164.897
 X100.601 Y170.271
 X100.542 Y171.203
 X100.465 Y171.963
 X100.370 Y172.554
 X100.260 Y172.980
 X100.150 Y173.241
 X100.069 Y173.348
 X99.970 Y173.408
 X99.314 Y173.712
 X98.590 Y174.209
 X97.886 Y174.826
 X97.221 Y175.532
 X96.616 Y176.298
 X96.095 Y177.095
 X95.681 Y177.895
 X95.401 Y178.679
 X95.295 Y179.419
 X95.392 Y180.330
 X95.654 Y181.263
 X96.056 Y182.205
 X96.575 Y183.130
 X97.189 Y184.015
 X97.882 Y184.833
 X98.635 Y185.555
 X99.433 Y186.154
 X100.266 Y186.596
 X101.101 Y186.841
 X102.033 Y186.947
 X103.022 Y186.934
 X104.035 Y186.813
 X105.039 Y186.594
 X105.998 Y186.285
 X106.878 Y185.890
 X107.644 Y185.410
 X108.220 Y184.871
 X108.404 Y184.677
 X108.524 Y184.593
 X108.630 Y184.556
 X108.781 Y184.549
 X109.026 Y184.594
 X109.377 Y184.714
 X109.837 Y184.919
 X110.413 Y185.213
 X111.129 Y185.605
 X113.573 Y186.763
 X116.403 Y187.758
 X119.489 Y188.571
 X122.721 Y189.189
 X125.986 Y189.599
 X129.172 Y189.788
 X132.169 Y189.739
 X134.868 Y189.436
 X137.143 Y188.860
 X137.762 Y188.624
 X138.553 Y188.300
 X139.509 Y187.892
 X140.601 Y187.413
 X141.802 Y186.875
 X143.085 Y186.291
 X144.420 Y185.673
 X145.780 Y185.035
 X147.129 Y184.391
 X150.511 Y182.860
 X153.626 Y181.627
 X156.393 Y180.702
 X158.718 Y180.100
 X160.498 Y179.832
 X161.558 Y179.889
 X161.751 Y180.032
 X161.668 Y180.388
 X160.732 Y181.458
 X160.258 Y181.903
 X159.869 Y182.290
 X159.573 Y182.625
 X159.355 Y182.957
 X159.244 Y183.362
 X159.373 Y183.784
 X159.660 Y184.054
 X159.976 Y184.224
 X160.352 Y184.379
 X160.730 Y184.485
 X161.141 Y184.509
 X161.555 Y184.438
 X161.963 Y184.276
 X162.368 Y184.033
 X162.781 Y183.711
 X163.217 Y183.310
 X163.687 Y182.822
 X164.199 Y182.248
 X164.817 Y181.546
 X165.336 Y181.011
 X165.806 Y180.617
 X166.287 Y180.328
 X166.851 Y180.109
 X167.574 Y179.936
 X168.513 Y179.795
 X169.721 Y179.670
 X171.249 Y179.541
 X173.111 Y179.358
 X174.766 Y179.116
 X176.253 Y178.794
 X177.613 Y178.373
 X178.885 Y177.833
 X180.107 Y177.160
 X181.318 Y176.337
 X182.561 Y175.350
 X183.884 Y174.178
 X184.971 Y173.079
 X186.133 Y171.738
 X187.323 Y170.224
 X188.498 Y168.603
 X189.615 Y166.941
 X190.630 Y165.303
 X191.498 Y163.754
 X192.176 Y162.354
 X192.616 Y161.167
 X192.721 Y160.707
 X192.791 Y160.200
 X192.829 Y159.647
 X192.838 Y159.054
 X192.818 Y158.429
 X192.771 Y157.779
 X192.696 Y157.112
 X192.594 Y156.436
 X192.468 Y155.777
 X192.345 Y155.011
 X192.226 Y153.910
 X192.113 Y152.510
 X192.009 Y150.860
 X191.916 Y149.007
G00 Z5.000
G00 X0 Y0 (home)
M05
M30
%
