%
(Header)
(Generated by gcodetools from Inkscape.)
(Using default header. To add your own header create file "header" in the output dir.)
M3
(Header end.)
G21 (All units in mm)

(Start cutting path id: path1456)
(Change tool to Default tool)

G00 Z17.000000
G00 X33.722703 Y232.392007

G01 Z0.000000 F100.0(Penetrate)
G02 X31.329924 Y237.260967 Z0.000000 I5.943055 J5.943055 F400.000000
G02 X31.076126 Y252.931566 Z0.000000 I69.568328 J8.964070
G03 X32.581348 Y269.262100 Z0.000000 I-2122.785640 J203.896601
G03 X34.233038 Y288.685414 Z0.000000 I-3001.133132 J264.987592
G01 X35.821906 Y308.114302 Z0.000000
G01 X23.250805 Y306.446686 Z0.000000
G02 X11.796276 Y306.956899 Z0.000000 I-4.296088 J32.385679
G02 X7.947988 Y309.883327 Z0.000000 I1.272687 J5.667085
G02 X4.896916 Y322.966113 Z0.000000 I22.840551 J12.223874
G02 X8.752456 Y334.133815 Z0.000000 I20.025820 J-0.664323
G02 X13.364335 Y336.846517 Z0.000000 I5.448925 J-3.987056
G02 X47.433888 Y338.966545 Z0.000000 I34.069553 J-272.694458
G02 X74.490941 Y338.411319 Z0.000000 I-0.000000 J-659.544056
G02 X81.901359 Y336.845741 Z0.000000 I-0.933679 J-22.740240
G02 X85.983317 Y332.394700 Z0.000000 I-2.528233 J-6.415852
G02 X87.336302 Y323.242590 Z0.000000 I-31.297585 J-9.302883
G02 X86.249193 Y313.157331 Z0.000000 I-45.380364 J-0.209584
G02 X83.858852 Y308.731225 Z0.000000 I-9.014714 J2.009931
G02 X79.526228 Y306.374352 Z0.000000 I-5.954323 J5.785037
G02 X70.381857 Y305.792016 Z0.000000 I-6.748335 J33.880724
G03 X62.866055 Y305.925804 Z0.000000 I-5.052791 J-72.676241
G03 X59.636374 Y303.211696 Z0.000000 I0.115562 J-3.416164
G03 X59.169379 Y296.725839 Z0.000000 I23.644430 J-4.962190
G03 X61.335955 Y262.689060 Z0.000000 I37050.659372 J2341.334208
G02 X62.381007 Y243.214374 Z0.000000 I-934.239210 J-59.898595
G02 X62.204048 Y237.403116 Z0.000000 I-39.476645 J-1.706220
G02 X60.473217 Y233.036471 Z0.000000 I-8.654236 J0.903976
G02 X58.020248 Y230.946105 Z0.000000 I-6.027391 J4.588508
G02 X43.854331 Y227.838078 Z0.000000 I-12.581955 J23.509579
G02 X33.722703 Y232.392007 Z0.000000 I0.929203 J15.614739
G01 X33.722703 Y232.392007 Z0.000000
G00 Z17.000000

(End cutting path id: path1456)


(Start cutting path id: path1456)
(Change tool to Default tool)

G00 Z17.000000
G00 X114.813140 Y231.373398

G01 Z0.000000 F100.0(Penetrate)
G02 X106.153118 Y239.435545 Z0.000000 I9.623275 J19.019111 F400.000000
G02 X97.559694 Y259.251346 Z0.000000 I71.072465 J42.592891
G02 X93.417048 Y280.914358 Z0.000000 I118.589309 J33.905595
G02 X93.101082 Y307.314110 Z0.000000 I150.392582 J15.001746
G02 X95.721475 Y325.178274 Z0.000000 I128.411514 J-9.711689
G02 X98.429569 Y331.620859 Z0.000000 I18.846424 J-4.131501
G02 X108.308145 Y338.975059 Z0.000000 I14.987445 J-9.820151
G02 X121.956580 Y338.619458 Z0.000000 I6.278905 J-21.107632
G01 X128.453480 Y336.312261 Z0.000000
G01 X128.453480 Y304.092927 Z0.000000
G03 X130.593608 Y273.629965 Z0.000000 I217.877687 J-0.000000
G03 X133.134440 Y270.942512 Z0.000000 I3.164274 J0.446808
G03 X137.286423 Y271.246013 Z0.000000 I1.526220 J7.672792
G03 X139.942830 Y273.368429 Z0.000000 I-1.751570 J4.915840
G03 X142.568749 Y282.542826 Z0.000000 I-14.281738 J9.050751
G03 X139.626990 Y316.559745 Z0.000000 I-216.451482 J-1.582907
G02 X138.271809 Y326.242479 Z0.000000 I184.335367 J30.735504
G02 X138.326652 Y329.874779 Z0.000000 I14.139506 J1.603074
G02 X139.592888 Y332.913338 Z0.000000 I6.539962 J-0.942235
G02 X142.406860 Y335.854484 Z0.000000 I13.949335 J-10.529450
G02 X153.213335 Y339.570293 Z0.000000 I10.345318 J-12.514867
G02 X165.267130 Y335.204965 Z0.000000 I-0.580388 J-20.427084
G02 X169.752038 Y329.159026 Z0.000000 I-8.850845 J-11.252034
G02 X173.285500 Y314.665400 Z0.000000 I-52.373450 J-20.445876
G02 X173.515402 Y288.235304 Z0.000000 I-135.177466 J-14.391888
G02 X169.214116 Y262.992278 Z0.000000 I-159.378483 J14.169326
G02 X160.254601 Y239.342503 Z0.000000 I-108.440815 J27.559872
G02 X152.105100 Y231.326151 Z0.000000 I-16.241344 J8.360501
G02 X145.229888 Y229.193676 Z0.000000 I-10.122839 J20.487300
G02 X133.403196 Y228.356532 Z0.000000 I-11.722163 J81.645069
G02 X121.577372 Y229.227994 Z0.000000 I0.104027 J82.086187
G02 X114.813140 Y231.373421 Z0.000000 I3.211107 J21.860220
G01 X114.813140 Y231.373398 Z0.000000
G00 Z17.000000

(End cutting path id: path1456)


(Start cutting path id: path1456)
(Change tool to Default tool)

G00 Z17.000000
G00 X191.592800 Y232.936707

G01 Z0.000000 F100.0(Penetrate)
G02 X188.773593 Y236.148378 Z0.000000 I7.960832 J9.831210 F400.000000
G02 X186.495629 Y242.629924 Z0.000000 I13.865405 J8.514123
G02 X185.914212 Y250.973890 Z0.000000 I74.559500 J9.387628
G02 X185.715300 Y279.617532 Z0.000000 I2062.265916 J28.643642
G02 X186.390470 Y312.460926 Z0.000000 I799.165433 J0.000000
G02 X188.052404 Y323.491416 Z0.000000 I51.494246 J-2.118054
G02 X192.991587 Y331.695635 Z0.000000 I16.526639 J-4.360650
G02 X200.773580 Y336.687662 Z0.000000 I18.042198 J-19.564074
G02 X219.607653 Y340.228893 Z0.000000 I17.727243 J-42.427300
G02 X237.831630 Y336.550732 Z0.000000 I-1.284568 J-53.350316
G02 X253.305553 Y326.733965 Z0.000000 I-17.634778 J-44.901217
G02 X261.998560 Y312.641792 Z0.000000 I-21.967375 J-23.278269
G02 X262.140107 Y291.595500 Z0.000000 I-35.931417 J-10.765279
G02 X252.958600 Y280.923350 Z0.000000 I-16.139963 J4.599987
G03 X248.292068 Y277.892173 Z0.000000 I7.795010 J-17.108184
G03 X247.185893 Y275.160346 Z0.000000 I2.193789 J-2.478183
G03 X248.242026 Y271.788900 Z0.000000 I7.830702 J0.601888
G03 X254.394950 Y262.236046 Z0.000000 I117.355059 J68.829591
G02 X261.880682 Y241.119636 Z0.000000 I-33.921717 J-23.910236
G02 X256.497640 Y231.072055 Z0.000000 I-10.718669 J-0.723205
G02 X248.331524 Y228.343299 Z0.000000 I-10.909999 J19.066032
G02 X242.563014 Y229.221892 Z0.000000 I-1.335494 J10.607884
G02 X238.008599 Y232.982071 Z0.000000 I4.716061 J10.350496
G02 X234.109140 Y241.273057 Z0.000000 I21.043943 J14.959996
G03 X227.327213 Y255.063199 Z0.000000 I-38.153113 J-10.200790
G03 X221.276680 Y258.053116 Z0.000000 I-6.050533 J-4.627110
G03 X218.667953 Y257.524926 Z0.000000 I-0.000000 J-6.706336
G03 X217.424651 Y256.090873 Z0.000000 I0.836614 J-1.981319
G03 X217.207340 Y253.683659 Z0.000000 I7.020274 J-1.847171
G03 X218.053430 Y245.802948 Z0.000000 I132.937534 J10.286682
G02 X217.589576 Y234.647909 Z0.000000 I-31.192836 J-4.290089
G02 X214.716260 Y230.865079 Z0.000000 I-5.562943 J1.242779
G02 X202.731684 Y228.422925 Z0.000000 I-10.078620 J18.832099
G02 X191.592800 Y232.936707 Z0.000000 I1.840401 J20.542527
G01 X191.592800 Y232.936707 Z0.000000
G00 Z17.000000

(End cutting path id: path1456)


(Start cutting path id: path1456)
(Change tool to Default tool)

G00 Z17.000000
G00 X230.528880 Y301.621870

G01 Z0.000000 F100.0(Penetrate)
G03 X230.159121 Y306.139636 Z0.000000 I-27.784198 J0.000000 F400.000000
G03 X229.286898 Y307.843126 Z0.000000 I-3.096090 J-0.510220
G03 X227.587928 Y308.719576 Z0.000000 I-2.210868 J-2.200772
G03 X223.094060 Y309.090805 Z0.000000 I-4.493868 J-27.014384
G03 X216.947059 Y307.531263 Z0.000000 I-0.000000 J-12.894107
G03 X214.792150 Y304.588498 Z0.000000 I2.033360 J-3.749349
G03 X214.610262 Y298.737753 Z0.000000 I18.131899 J-3.491884
G03 X215.917398 Y295.633885 Z0.000000 I6.250401 J0.805067
G03 X218.619440 Y293.804414 Z0.000000 I4.240977 J3.353594
G03 X223.668190 Y293.363796 Z0.000000 I3.602480 J12.132995
G03 X228.488261 Y295.972299 Z0.000000 I-0.841027 J7.311664
G03 X230.528880 Y301.621870 Z0.000000 I-6.800273 J5.649571
G01 X230.528880 Y301.621870 Z0.000000
G00 Z17.000000

(End cutting path id: path1456)


(Start cutting path id: path1456)
(Change tool to Default tool)

G00 Z17.000000
G00 X279.898430 Y234.698204

G01 Z0.000000 F100.0(Penetrate)
G02 X277.447455 Y241.761538 Z0.000000 I12.837640 J8.411567 F400.000000
G02 X275.672100 Y282.623844 Z0.000000 I457.544544 J40.348780
G02 X276.408317 Y315.160094 Z0.000000 I756.661416 J-0.844968
G02 X277.933048 Y326.973858 Z0.000000 I70.729779 J-3.123386
G02 X282.477620 Y335.932642 Z0.000000 I19.325189 J-4.171130
G02 X287.886220 Y339.212979 Z0.000000 I8.019997 J-7.124323
G02 X300.204480 Y337.444860 Z0.000000 I3.999009 J-15.933345
G02 X307.986640 Y327.407984 Z0.000000 I-8.664941 J-14.753835
G03 X311.811584 Y319.919043 Z0.000000 I21.081923 J6.046243
G03 X314.862076 Y318.281807 Z0.000000 I3.392872 J2.661135
G03 X318.075079 Y319.443615 Z0.000000 I0.327920 J4.116845
G03 X322.688580 Y326.236930 Z0.000000 I-14.381035 J14.729727
G02 X332.040840 Y337.350351 Z0.000000 I22.402147 J-9.360238
G02 X342.882810 Y339.108709 Z0.000000 I7.462286 J-11.707404
G02 X347.997954 Y335.915301 Z0.000000 I-2.389630 J-9.521045
G02 X352.465699 Y326.781054 Z0.000000 I-15.986742 J-13.479194
G02 X354.001950 Y314.892300 Z0.000000 I-72.638590 J-15.429907
G02 X354.835080 Y282.841658 Z0.000000 I-737.414905 J-35.204648
G02 X353.129024 Y242.211830 Z0.000000 I-439.892645 J-1.879533
G02 X350.596820 Y234.916019 Z0.000000 I-15.803013 J1.397513
G02 X341.344359 Y228.890180 Z0.000000 I-11.490687 J7.527208
G02 X330.193290 Y231.546469 Z0.000000 I-2.412324 J14.607260
G02 X327.641314 Y235.861312 Z0.000000 I3.752075 J5.131225
G02 X327.142600 Y255.103819 Z0.000000 I92.946034 J12.036628
G03 X327.508563 Y269.881287 Z0.000000 I-141.224580 J10.890685
G03 X326.759935 Y275.338427 Z0.000000 I-25.333630 J-0.695430
G03 X325.238236 Y276.040113 Z0.000000 I-1.042990 J-0.261016
G03 X322.657180 Y273.027131 Z0.000000 I2.262674 J-4.550324
G02 X316.469170 Y268.621277 Z0.000000 I-6.023709 J1.911834
G02 X308.739610 Y273.389082 Z0.000000 I0.234843 J9.030207
G03 X305.340490 Y275.712074 Z0.000000 I-3.931158 J-2.103893
G03 X303.275022 Y274.328152 Z0.000000 I-0.227583 J-1.893628
G03 X302.498028 Y268.643443 Z0.000000 I20.586027 J-5.709185
G03 X303.446220 Y254.302331 Z0.000000 I107.071106 J-0.122674
G02 X304.025124 Y238.435794 Z0.000000 I-81.479259 J-10.916669
G02 X302.167990 Y233.111848 Z0.000000 I-10.349493 J0.624296
G02 X291.361839 Y227.967189 Z0.000000 I-9.943551 J6.964758
G02 X279.898430 Y234.698204 Z0.000000 I1.064192 J14.939413
G01 X279.898430 Y234.698204 Z0.000000
G00 Z17.000000

(End cutting path id: path1456)


(Start cutting path id: path1456)
(Change tool to Default tool)

G00 Z17.000000
G00 X373.061000 Y230.866447

G01 Z0.000000 F100.0(Penetrate)
G02 X370.493530 Y234.432668 Z0.000000 I2.715613 J4.662406 F400.000000
G02 X368.704130 Y251.864440 Z0.000000 I84.012702 J17.431772
G02 X369.638396 Y268.101586 Z0.000000 I141.564508 J-0.000000
G02 X373.177189 Y292.742413 Z0.000000 I446.615081 J-51.566108
G02 X378.238369 Y317.464639 Z0.000000 I393.536246 J-67.686293
G02 X381.638650 Y327.067334 Z0.000000 I46.491918 J-11.059266
G02 X396.183492 Y338.808800 Z0.000000 I19.597155 J-9.396638
G02 X422.030110 Y336.721477 Z0.000000 I9.722546 J-40.677643
G02 X428.684071 Y331.667679 Z0.000000 I-6.415161 J-15.353655
G02 X434.293250 Y321.161202 Z0.000000 I-26.553120 J-20.926679
G02 X442.720090 Y286.908091 Z0.000000 I-232.940544 J-75.470407
G02 X446.538190 Y249.455232 Z0.000000 I-274.928703 J-46.948422
G02 X446.687493 Y237.869854 Z0.000000 I-273.561230 J-9.319081
G02 X446.137705 Y234.235479 Z0.000000 I-12.998911 J0.107630
G02 X444.287692 Y231.688490 Z0.000000 I-4.569084 J1.373393
G02 X440.631010 Y229.802851 Z0.000000 I-9.023372 J13.009977
G02 X430.133933 Y228.598876 Z0.000000 I-7.800993 J21.652062
G02 X423.050995 Y231.924703 Z0.000000 I1.450120 J12.293388
G02 X418.340918 Y239.011977 Z0.000000 I13.223550 J13.896892
G02 X414.302950 Y254.855250 Z0.000000 I67.574732 J25.658955
G03 X409.059439 Y266.799231 Z0.000000 I-23.590272 J-3.233369
G03 X404.234040 Y267.026822 Z0.000000 I-2.516244 J-2.081562
G03 X403.223654 Y265.141022 Z0.000000 I2.614274 J-2.614269
G03 X400.819310 Y250.036052 Z0.000000 I185.259310 J-37.232618
G02 X398.436195 Y238.211184 Z0.000000 I-73.573331 J8.674966
G02 X395.688115 Y232.827517 Z0.000000 I-15.251128 J4.391693
G02 X391.113632 Y229.502619 Z0.000000 I-8.096620 J6.330247
G02 X383.788560 Y228.253101 Z0.000000 I-7.079589 J19.407100
G02 X377.612188 Y229.031806 Z0.000000 I0.326059 J27.469763
G02 X373.061000 Y230.866447 Z0.000000 I4.040662 J16.586035
G01 X373.061000 Y230.866447 Z0.000000
G00 Z17.000000

(End cutting path id: path1456)


(Start cutting path id: path1456)
(Change tool to Default tool)

G00 Z17.000000
G00 X413.517720 Y296.642586

G01 Z0.000000 F100.0(Penetrate)
G03 X413.885084 Y303.652118 Z0.000000 I-4.520022 J3.751283 F400.000000
G03 X406.048790 Y307.845981 Z0.000000 I-7.836294 J-5.224182
G03 X398.212494 Y303.652120 Z0.000000 I0.000000 J-9.418052
G03 X398.579860 Y296.642586 Z0.000000 I4.887379 J-3.258249
G03 X402.115254 Y293.836707 Z0.000000 I8.441046 J7.005445
G03 X406.048790 Y292.908126 Z0.000000 I3.933536 J7.867089
G03 X409.982312 Y293.836703 Z0.000000 I0.000000 J8.795636
G03 X413.517720 Y296.642586 Z0.000000 I-4.905701 J9.811422
G01 X413.517720 Y296.642586 Z0.000000
G00 Z17.000000

(End cutting path id: path1456)


(Start cutting path id: path1456)
(Change tool to Default tool)

G00 Z17.000000
G00 X521.730790 Y230.392592

G01 Z0.000000 F100.0(Penetrate)
G02 X515.616589 Y234.529815 Z0.000000 I8.058455 J18.495750 F400.000000
G02 X511.385409 Y241.845960 Z0.000000 I11.227727 J11.374975
G02 X509.817385 Y251.584146 Z0.000000 I49.196614 J12.916874
G02 X508.538490 Y280.638257 Z0.000000 I782.602495 J49.003572
G02 X508.262652 Y320.014233 Z0.000000 I1067.490939 J27.166989
G02 X509.059070 Y326.169850 Z0.000000 I26.531741 J-0.303367
G02 X516.196155 Y334.223668 Z0.000000 I11.318318 J-2.840741
G02 X534.753730 Y337.590857 Z0.000000 I18.178594 J-47.365876
G02 X554.529915 Y334.559218 Z0.000000 I-0.518427 J-69.400309
G02 X569.239500 Y325.720301 Z0.000000 I-10.372598 J-33.921099
G02 X574.246368 Y318.834814 Z0.000000 I-19.290367 J-19.290378
G02 X579.431350 Y305.757752 Z0.000000 I-66.341420 J-33.870441
G02 X583.404771 Y281.848829 Z0.000000 I-98.657430 J-28.680501
G02 X581.882869 Y261.784948 Z0.000000 I-82.468602 J-3.834182
G02 X574.930453 Y243.568824 Z0.000000 I-57.598595 J11.548437
G02 X565.094270 Y234.250645 Z0.000000 I-21.052991 J12.372760
G02 X557.026072 Y231.384637 Z0.000000 I-14.511291 J28.061704
G02 X542.769874 Y229.272830 Z0.000000 I-25.210844 J121.015434
G02 X528.305083 Y228.896280 Z0.000000 I-10.230757 J114.990926
G02 X521.730790 Y230.392592 Z0.000000 I0.664688 J18.111193
G01 X521.730790 Y230.392592 Z0.000000
G00 Z17.000000

(End cutting path id: path1456)


(Start cutting path id: path1456)
(Change tool to Default tool)

G00 Z17.000000
G00 X552.850200 Y272.827304

G01 Z0.000000 F100.0(Penetrate)
G03 X555.243752 Y284.160188 Z0.000000 I-18.270376 J9.777984 F400.000000
G03 X551.307090 Y293.334501 Z0.000000 I-15.350502 J-1.155080
G03 X541.825782 Y298.157743 Z0.000000 I-11.058581 J-10.007869
G03 X537.758690 Y294.775351 Z0.000000 I-0.390026 J-3.667415
G03 X537.735272 Y275.702940 Z0.000000 I125.010236 J-9.689714
G03 X539.626690 Y269.883355 Z0.000000 I12.870289 J0.965804
G03 X545.633728 Y267.350099 Z0.000000 I4.784727 J2.957100
G03 X552.850200 Y272.827304 Z0.000000 I-2.360448 J10.602621
G01 X552.850200 Y272.827304 Z0.000000
G00 Z17.000000

(End cutting path id: path1456)


(Start cutting path id: path1456)
(Change tool to Default tool)

G00 Z17.000000
G00 X618.433430 Y231.676947

G01 Z0.000000 F100.0(Penetrate)
G02 X606.501037 Y242.898676 Z0.000000 I10.495357 J23.114915 F400.000000
G02 X598.458950 Y269.344138 Z0.000000 I63.865154 J33.866981
G02 X599.059044 Y289.361361 Z0.000000 I75.214181 J7.762769
G02 X604.747225 Y311.650868 Z0.000000 I130.506370 J-21.434080
G02 X614.639799 Y332.135035 Z0.000000 I95.226853 J-33.357795
G02 X622.707570 Y338.566898 Z0.000000 I13.275481 J-8.376211
G02 X639.801152 Y338.710562 Z0.000000 I8.756663 J-24.899419
G02 X658.912990 Y326.513984 Z0.000000 I-14.665148 J-44.052305
G02 X670.525329 Y306.153095 Z0.000000 I-36.190956 J-34.132486
G02 X674.638612 Y277.284144 Z0.000000 I-101.145163 J-29.138794
G02 X670.233453 Y248.983841 Z0.000000 I-91.599538 J-0.234828
G02 X659.149010 Y234.435609 Z0.000000 I-26.126846 J8.409514
G02 X651.583370 Y231.145337 Z0.000000 I-13.377281 J20.416335
G02 X639.204681 Y229.223434 Z0.000000 I-17.286583 J70.514717
G02 X626.679511 Y229.443487 Z0.000000 I-4.974594 J73.421050
G02 X618.433320 Y231.676947 Z0.000000 I2.722081 J26.389917
G01 X618.433430 Y231.676947 Z0.000000
G00 Z17.000000

(End cutting path id: path1456)


(Start cutting path id: path1456)
(Change tool to Default tool)

G00 Z17.000000
G00 X646.121590 Y274.413633

G01 Z0.000000 F100.0(Penetrate)
G03 X649.796023 Y282.370752 Z0.000000 I-8.968310 J8.968328 F400.000000
G03 X648.454934 Y291.218292 Z0.000000 I-19.543052 J1.563120
G03 X643.343756 Y298.103285 Z0.000000 I-15.605546 J-6.245335
G03 X635.903680 Y299.945676 Z0.000000 I-5.720556 J-7.157436
G03 X631.689756 Y297.166283 Z0.000000 I1.233032 J-6.453564
G03 X627.540494 Y288.719922 Z0.000000 I28.601661 J-19.292865
G03 X625.797723 Y279.435750 Z0.000000 I33.496493 J-11.093423
G03 X627.456940 Y274.440831 Z0.000000 I7.230442 J-0.371225
G03 X636.216809 Y270.319385 Z0.000000 I8.776491 J7.283875
G03 X646.121590 Y274.413641 Z0.000000 I0.020373 J13.978614
G01 X646.121590 Y274.413633 Z0.000000
G00 Z17.000000

(End cutting path id: path1456)


(Start cutting path id: path1456)
(Change tool to Default tool)

G00 Z17.000000
G00 X81.871485 Y93.628320

G01 Z0.000000 F100.0(Penetrate)
G02 X72.770132 Y97.684760 Z0.000000 I21.846300 J61.254590 F400.000000
G02 X67.556078 Y101.373840 Z0.000000 I12.715368 J23.500830
G02 X62.612618 Y112.642766 Z0.000000 I10.083741 J11.142305
G02 X67.754497 Y124.909820 Z0.000000 I17.556713 J-0.147935
G01 X72.767266 Y129.922610 Z0.000000
G01 X82.593139 Y124.909820 Z0.000000
G03 X97.074473 Y120.434808 Z0.000000 I20.118202 J39.434758
G03 X101.398430 Y122.495720 Z0.000000 I0.562961 J4.385322
G03 X100.579834 Y127.725518 Z0.000000 I-3.458700 J2.137590
G03 X88.516006 Y133.494630 Z0.000000 I-16.848112 J-19.733266
G02 X69.775953 Y148.236417 Z0.000000 I4.750251 J25.320872
G02 X69.685499 Y175.306740 Z0.000000 I30.279107 J13.636488
G02 X90.593910 Y197.746904 Z0.000000 I42.829883 J-18.945649
G02 X118.416290 Y201.118796 Z0.000000 I18.303378 J-34.555170
G02 X138.742572 Y184.854942 Z0.000000 I-7.618676 J-30.355334
G02 X134.707840 Y168.810800 Z0.000000 I-11.286215 J-5.691169
G02 X129.286202 Y167.094173 Z0.000000 I-5.443110 J7.771108
G02 X120.832060 Y168.779400 Z0.000000 I-0.049340 J21.800707
G03 X106.859289 Y169.975124 Z0.000000 I-8.850180 J-21.181733
G03 X102.575770 Y164.600230 Z0.000000 I1.230407 J-5.374894
G03 X105.644926 Y158.615678 Z0.000000 I7.369221 J0.000000
G03 X123.076380 Y149.869980 Z0.000000 I36.155912 J50.319448
G02 X137.022562 Y139.797137 Z0.000000 I-8.300348 J-26.183000
G02 X142.410050 Y123.172100 Z0.000000 I-22.957529 J-16.625037
G02 X141.337932 Y112.441636 Z0.000000 I-54.234830 J-0.000000
G02 X138.771240 Y105.144110 Z0.000000 I-27.356371 J5.521662
G02 X131.129527 Y97.217391 Z0.000000 I-17.109908 J8.847883
G02 X115.769773 Y91.492426 Z0.000000 I-25.752310 J45.624825
G02 X99.033542 Y90.226844 Z0.000000 I-13.436229 J66.388630
G02 X81.871485 Y93.628310 Z0.000000 I2.911288 J59.685080
G01 X81.871485 Y93.628320 Z0.000000
G00 Z17.000000

(End cutting path id: path1456)


(Start cutting path id: path1456)
(Change tool to Default tool)

G00 Z17.000000
G00 X160.240220 Y94.597940

G01 Z0.000000 F100.0(Penetrate)
G02 X157.496013 Y99.984581 Z0.000000 I6.915250 J6.915287 F400.000000
G02 X154.034780 Y133.809840 Z0.000000 I305.572674 J48.358013
G02 X155.023667 Y190.803746 Z0.000000 I442.792437 J20.822754
G02 X159.367390 Y198.943208 Z0.000000 I11.573438 J-0.947536
G02 X171.407696 Y202.814938 Z0.000000 I11.148627 J-14.012665
G02 X184.334170 Y197.698394 Z0.000000 I-1.077377 J-21.608935
G02 X188.201099 Y192.554032 Z0.000000 I-9.449315 J-11.128423
G02 X193.538110 Y177.217030 Z0.000000 I-84.785716 J-38.101052
G03 X201.916359 Y154.926701 Z0.000000 I103.176005 J26.060961
G03 X206.266140 Y152.262390 Z0.000000 I4.349781 J2.218592
G03 X208.338998 Y153.805348 Z0.000000 I0.000000 J2.163850
G03 X208.689780 Y160.353740 Z0.000000 I-13.349749 J3.998707
G02 X207.367743 Y168.472528 Z0.000000 I179.103807 J33.331709
G02 X205.596130 Y182.492110 Z0.000000 I532.499902 J74.412167
G02 X204.730725 Y192.179343 Z0.000000 I205.970544 J23.282562
G02 X205.134926 Y194.973553 Z0.000000 I6.779610 J0.445624
G02 X206.824164 Y196.729942 Z0.000000 I2.848943 J-1.049499
G02 X211.366130 Y198.155191 Z0.000000 I10.360674 J-25.067496
G02 X218.647833 Y198.737477 Z0.000000 I5.761943 J-26.233901
G02 X225.008060 Y197.382067 Z0.000000 I-1.204421 J-21.252021
G02 X228.308026 Y195.431209 Z0.000000 I-4.012561 J-10.553882
G02 X230.614341 Y191.964928 Z0.000000 I-4.892003 J-5.755332
G02 X231.628341 Y187.172069 Z0.000000 I-23.523558 J-7.480446
G02 X233.011830 Y172.212880 Z0.000000 I-442.560287 J-48.473418
G02 X233.780166 Y150.777742 Z0.000000 I-270.691976 J-20.434215
G02 X233.066282 Y125.798461 Z0.000000 I-502.165869 J1.851576
G02 X230.756750 Y100.011495 Z0.000000 I-360.467692 J19.287304
G02 X228.913760 Y95.622990 Z0.000000 I-8.776500 J1.104524
G02 X225.891662 Y93.662036 Z0.000000 I-4.418742 J3.500674
G02 X216.744010 Y92.510940 Z0.000000 I-9.147652 J35.772233
G02 X210.711501 Y93.053135 Z0.000000 I-0.000000 J33.830185
G02 X207.093166 Y94.960008 Z0.000000 I1.211513 J6.685248
G02 X204.349129 Y98.693356 Z0.000000 I11.304410 J11.183938
G02 X197.754120 Y111.705380 Z0.000000 I347.821400 J184.466972
G03 X187.638883 Y129.928868 Z0.000000 I-167.170413 J-80.871542
G03 X184.976440 Y131.956660 Z0.000000 I-4.049384 J-2.554986
G03 X183.516526 Y131.783742 Z0.000000 I-0.531995 J-1.757821
G03 X182.433971 Y129.781941 Z0.000000 I1.108282 J-1.892966
G03 X182.910812 Y125.462287 Z0.000000 I36.008860 J1.788823
G03 X186.234260 Y106.637260 Z0.000000 I2096.566072 J360.430556
G02 X186.110444 Y98.864650 Z0.000000 I-19.721316 J-3.573135
G02 X183.566790 Y94.189040 Z0.000000 I-9.188189 J1.968903
G02 X172.107937 Y89.559862 Z0.000000 I-11.181702 J11.181722
G02 X160.240220 Y94.597940 Z0.000000 I0.301630 J17.207382
G01 X160.240220 Y94.597940 Z0.000000
G00 Z17.000000

(End cutting path id: path1456)


(Start cutting path id: path1456)
(Change tool to Default tool)

G00 Z17.000000
G00 X267.657140 Y93.520860

G01 Z0.000000 F100.0(Penetrate)
G02 X255.724757 Y104.742585 Z0.000000 I10.495407 J23.114954 F400.000000
G02 X247.682690 Y131.188050 Z0.000000 I63.864636 J33.866767
G02 X248.282782 Y151.205277 Z0.000000 I75.214060 J7.762785
G02 X253.970966 Y173.494780 Z0.000000 I130.506183 J-21.434063
G02 X263.863548 Y193.978938 Z0.000000 I95.226715 J-33.357781
G02 X271.931320 Y200.410789 Z0.000000 I13.275451 J-8.376203
G02 X289.024867 Y200.554469 Z0.000000 I8.756670 J-24.899501
G02 X308.136740 Y188.357890 Z0.000000 I-14.664937 J-44.052070
G02 X319.749081 Y167.997007 Z0.000000 I-36.190885 J-34.132455
G02 X323.862355 Y139.128059 Z0.000000 I-101.144991 J-29.138735
G02 X319.457175 Y110.827765 Z0.000000 I-91.599394 J-0.234778
G02 X308.372700 Y96.279520 Z0.000000 I-26.126880 J8.409553
G02 X300.807089 Y92.989250 Z0.000000 I-13.377220 J20.416154
G02 X288.428410 Y91.067345 Z0.000000 I-17.286568 J70.514508
G02 X275.903250 Y91.287397 Z0.000000 I-4.974594 J73.420920
G02 X267.657050 Y93.520860 Z0.000000 I2.722085 J26.389939
G01 X267.657140 Y93.520860 Z0.000000
G00 Z17.000000

(End cutting path id: path1456)


(Start cutting path id: path1456)
(Change tool to Default tool)

G00 Z17.000000
G00 X295.345310 Y136.257550

G01 Z0.000000 F100.0(Penetrate)
G03 X299.019759 Y144.214671 Z0.000000 I-8.968314 J8.968355 F400.000000
G03 X297.678684 Y153.062207 Z0.000000 I-19.543007 J1.563152
G03 X292.567516 Y159.947195 Z0.000000 I-15.605502 J-6.245297
G03 X285.127430 Y161.789590 Z0.000000 I-5.720565 J-7.157447
G03 X280.913491 Y159.010192 Z0.000000 I1.233032 J-6.453588
G03 X276.764221 Y150.563831 Z0.000000 I28.601561 J-19.292845
G03 X275.021455 Y141.279662 Z0.000000 I33.496299 J-11.093370
G03 X276.680690 Y136.284740 Z0.000000 I7.230419 J-0.371215
G03 X285.440576 Y132.163294 Z0.000000 I8.776505 J7.283904
G03 X295.345310 Y136.257540 Z0.000000 I0.020369 J13.978534
G01 X295.345310 Y136.257550 Z0.000000
G00 Z17.000000

(End cutting path id: path1456)


(Start cutting path id: path1456)
(Change tool to Default tool)

G00 Z17.000000
G00 X357.284380 Y93.520860

G01 Z0.000000 F100.0(Penetrate)
G02 X345.351938 Y104.742625 Z0.000000 I10.495290 J23.114905 F400.000000
G02 X337.309840 Y131.188050 Z0.000000 I63.865795 J33.867215
G02 X337.909932 Y151.205277 Z0.000000 I75.214057 J7.762785
G02 X343.598118 Y173.494780 Z0.000000 I130.506132 J-21.434056
G02 X353.490701 Y193.978936 Z0.000000 I95.226662 J-33.357771
G02 X361.558480 Y200.410789 Z0.000000 I13.275456 J-8.376210
G02 X378.652087 Y200.554435 Z0.000000 I8.756651 J-24.899657
G02 X397.763890 Y188.357890 Z0.000000 I-14.665004 J-44.052069
G02 X409.376243 Y167.997008 Z0.000000 I-36.190959 J-34.132524
G02 X413.489546 Y139.128059 Z0.000000 I-101.145082 J-29.138857
G02 X409.084398 Y110.827763 Z0.000000 I-91.599371 J-0.234883
G02 X397.999940 Y96.279520 Z0.000000 I-26.126840 J8.409509
G02 X390.434317 Y92.989249 Z0.000000 I-13.377227 J20.416189
G02 X378.055616 Y91.067345 Z0.000000 I-17.286606 J70.514825
G02 X365.530434 Y91.287399 Z0.000000 I-4.974597 J73.421053
G02 X357.284290 Y93.520860 Z0.000000 I2.722045 J26.389530
G01 X357.284380 Y93.520860 Z0.000000
G00 Z17.000000

(End cutting path id: path1456)


(Start cutting path id: path1456)
(Change tool to Default tool)

G00 Z17.000000
G00 X384.972550 Y136.257550

G01 Z0.000000 F100.0(Penetrate)
G03 X388.646978 Y144.214667 Z0.000000 I-8.968272 J8.968304 F400.000000
G03 X387.305871 Y153.062207 Z0.000000 I-19.543027 J1.563088
G03 X382.194672 Y159.947201 Z0.000000 I-15.605578 J-6.245391
G03 X374.754580 Y161.789590 Z0.000000 I-5.720566 J-7.157472
G03 X370.540652 Y159.010190 Z0.000000 I1.233026 J-6.453555
G03 X366.391409 Y150.563831 Z0.000000 I28.601672 J-19.292797
G03 X364.648644 Y141.279646 Z0.000000 I33.496762 J-11.093448
G03 X366.307840 Y136.284740 Z0.000000 I7.230473 J-0.371226
G03 X375.067703 Y132.163304 Z0.000000 I8.776482 J7.283885
G03 X384.972550 Y136.257540 Z0.000000 I0.020369 J13.978832
G01 X384.972550 Y136.257550 Z0.000000
G00 Z17.000000

(End cutting path id: path1456)


(Start cutting path id: path1456)
(Change tool to Default tool)

G00 Z17.000000
G00 X439.558260 Y92.944710

G01 Z0.000000 F100.0(Penetrate)
G02 X436.257356 Y95.696437 Z0.000000 I3.872947 J8.001596 F400.000000
G02 X433.103950 Y102.462665 Z0.000000 I15.495213 J11.339494
G02 X431.642469 Y110.832329 Z0.000000 I61.067776 J14.975866
G02 X429.669260 Y133.269640 Z0.000000 I638.487830 J67.456098
G02 X429.581101 Y168.309207 Z0.000000 I258.492374 J18.170258
G02 X433.318935 Y184.520842 Z0.000000 I51.635460 J-3.368601
G02 X442.722369 Y196.081464 Z0.000000 I23.738242 J-9.704038
G02 X457.515970 Y201.388973 Z0.000000 I17.847533 J-26.475537
G02 X482.687380 Y199.088321 Z0.000000 I6.504064 J-67.689492
G02 X498.822570 Y189.596670 Z0.000000 I-10.239115 J-35.866043
G02 X503.611030 Y181.573799 Z0.000000 I-13.494695 J-13.494759
G02 X505.898090 Y165.955440 Z0.000000 I-52.185442 J-15.618359
G02 X505.569477 Y155.459783 Z0.000000 I-167.776038 J-0.000000
G02 X504.706881 Y150.805503 Z0.000000 I-19.624994 J1.230101
G02 X502.627927 Y146.763723 Z0.000000 I-12.730718 J3.992688
G02 X498.328680 Y141.820340 Z0.000000 I-37.614886 J28.372353
G02 X493.305937 Y137.389930 Z0.000000 I-37.861461 J37.861088
G02 X489.649730 Y135.534510 Z0.000000 I-6.635546 J8.545619
G02 X485.433813 Y134.956639 Z0.000000 I-4.118167 J14.376753
G02 X475.705060 Y135.339880 Z0.000000 I0.969236 J148.280732
G03 X464.569774 Y135.562337 Z0.000000 I-7.695173 J-106.383973
G03 X461.837238 Y133.638998 Z0.000000 I0.098171 J-3.042235
G03 X461.558200 Y129.594191 Z0.000000 I6.227796 J-2.461664
G03 X466.303300 Y111.554300 Z0.000000 I488.822227 J118.932748
G02 X468.333867 Y103.466268 Z0.000000 I-134.781208 J-38.136837
G02 X468.442642 Y100.491806 Z0.000000 I-8.134871 J-1.786711
G02 X467.287893 Y98.003973 Z0.000000 I-4.723566 J0.680575
G02 X463.881980 Y94.749190 Z0.000000 I-21.492983 J19.081546
G02 X452.908376 Y90.399821 Z0.000000 I-12.435574 J15.357303
G02 X439.558260 Y92.944710 Z0.000000 I-1.937949 J26.122632
G01 X439.558260 Y92.944710 Z0.000000
G00 Z17.000000

(End cutting path id: path1456)


(Start cutting path id: path1456)
(Change tool to Default tool)

G00 Z17.000000
G00 X478.014110 Y162.718900

G01 Z0.000000 F100.0(Penetrate)
G03 X478.084127 Y173.350053 Z0.000000 I-5.351077 J5.351049 F400.000000
G03 X464.824570 Y176.260650 Z0.000000 I-8.839016 J-8.609132
G03 X461.398316 Y172.351460 Z0.000000 I1.998303 J-5.207520
G03 X461.740006 Y166.887598 Z0.000000 I9.085134 J-2.174464
G03 X465.134322 Y161.965921 Z0.000000 I11.584851 J4.358374
G03 X471.043110 Y159.731320 Z0.000000 I5.908788 J6.694782
G03 X474.714338 Y160.484868 Z0.000000 I0.000000 J9.319748
G03 X478.014110 Y162.718900 Z0.000000 I-4.150454 J9.684394
G01 X478.014110 Y162.718900 Z0.000000
G00 Z17.000000

(End cutting path id: path1456)


(Start cutting path id: path1456)
(Change tool to Default tool)

G00 Z17.000000
G00 X543.496330 Y92.724960

G01 Z0.000000 F100.0(Penetrate)
G02 X540.310940 Y94.637956 Z0.000000 I4.321420 J10.804279 F400.000000
G02 X538.524541 Y97.734434 Z0.000000 I3.396681 J4.023127
G02 X538.231112 Y102.133348 Z0.000000 I19.711585 J3.524105
G02 X539.101320 Y117.307940 Z0.000000 I559.028253 J-24.446017
G03 X539.914949 Y131.851413 Z0.000000 I-485.081322 J34.432189
G03 X539.695444 Y136.362554 Z0.000000 I-25.236009 J1.032964
G03 X538.113852 Y139.614629 Z0.000000 I-5.789346 J-0.804923
G03 X535.800330 Y141.050580 Z0.000000 I-3.990418 J-3.847449
G02 X526.369089 Y148.928743 Z0.000000 I4.905974 J15.457450
G02 X517.769070 Y175.158850 Z0.000000 I72.343753 J38.244108
G02 X516.241413 Y187.039343 Z0.000000 I304.430770 J45.183801
G02 X516.290195 Y191.090766 Z0.000000 I16.759089 J1.824212
G02 X517.685408 Y194.397657 Z0.000000 I6.748403 J-0.899452
G02 X520.747390 Y197.504857 Z0.000000 I15.335837 J-12.050346
G02 X532.595944 Y202.198729 Z0.000000 I13.419046 J-16.571809
G02 X540.223800 Y198.943208 Z0.000000 I0.665078 J-9.005679
G02 X542.253433 Y195.555625 Z0.000000 I-10.153577 J-8.385210
G02 X544.990710 Y187.322440 Z0.000000 I-58.808620 J-24.123654
G03 X548.548155 Y178.895498 Z0.000000 I30.276491 J7.816899
G03 X551.780724 Y175.903975 Z0.000000 I6.860133 J4.170617
G03 X555.655530 Y175.660757 Z0.000000 I2.220182 J4.383452
G03 X560.826280 Y179.301880 Z0.000000 I-3.990999 J11.159654
G03 X564.591912 Y185.557794 Z0.000000 I-19.485103 J15.989981
G03 X565.649560 Y190.822840 Z0.000000 I-12.576058 J5.265046
G02 X567.018637 Y196.769086 Z0.000000 I13.597562 J0.000000
G02 X570.072814 Y200.044046 Z0.000000 I6.859653 J-3.335588
G02 X574.602434 Y201.366430 Z0.000000 I4.986848 J-8.662726
G02 X582.579590 Y200.568929 Z0.000000 I1.265514 J-27.636723
G01 X591.790850 Y198.265501 Z0.000000
G01 X591.254820 Y181.614970 Z0.000000
G02 X585.522570 Y154.037899 Z0.000000 I-81.879892 J2.635495
G02 X575.909190 Y142.937730 Z0.000000 I-20.696941 J8.211780
G01 X568.534330 Y138.705170 Z0.000000
G01 X569.965610 Y116.614690 Z0.000000
G02 X569.752387 Y95.361245 Z0.000000 I-142.046709 J-9.202723
G02 X567.900710 Y92.310880 Z0.000000 I-3.997923 J0.339679
G02 X558.566439 Y89.690107 Z0.000000 I-9.047323 J14.290296
G02 X543.496330 Y92.724960 Z0.000000 I0.721423 J42.516449
G01 X543.496330 Y92.724960 Z0.000000
G00 Z17.000000

(End cutting path id: path1456)


(Footer)
M5
G00 X0.0000 Y0.0000
M2
(Using default footer. To add your own footer create file "footer" in the output dir.)
(end)
%